!!!COM: Marotta, Erasmo
!!!CDT:
!!!PTL: Aminta musicale. Il primo libro de madrigali a cinque voci
!!!PPP: Venice
!!!PPR: Angelo Gardano
!!!PDT: 1600
!!!PUB-format:
!!!RISM: M 714
!!!OTL: Silvia, io ti seguo, io vengo
!!!act: IV
!!!scene: 2
!!!verse: 1717
!!!AGN: 
!!!SCT: Tam4021717a
!!!SCA: Tam4021717a
!!!original-voices: 5
!!!extant-voices: 3
!!!complete: N
!!!final: F
**kern	**text	**kern	**text	**kern	**text
*part3	*part3	*part2	*part2	*part1	*part1
*staff3	*staff3	*staff2	*staff2	*staff1	*staff1
*I"Basso	*	*I"Quinto	*	*I"Canto	*
*I'B	*	*I'V	*	*I'C	*
*oclefF4	*	*oclefC4	*	*oclefC1	*
*clefF4	*	*clefGv2	*	*clefG2	*
*k[b-]	*	*k[b-]	*	*k[b-]	*
*omet(C)	*	*omet(C)	*	*omet(C)	*
*M4/2	*	*M4/2	*	*M4/2	*
=1	=1	=1	=1	=1	=1
0r	.	0r	.	2f	Sil-
.	.	.	.	4g	-via, io
.	.	.	.	4a	ti
.	.	.	.	4b-y	se-
.	.	.	.	4cc	-guo, io
.	.	.	.	4.dd	ven-
.	.	.	.	8dd	-go a
=2	=2	=2	=2	=2	=2
0r	.	4r	.	4cc	far-
.	.	4F	Sil-	4cc	-ti
.	.	4G	-via, io	4b-y	com-
.	.	4A	ti	4a	-pa-
.	.	4B-y	se-	2g	-gni-
.	.	4c	-guo, io	.	.
.	.	4d	ven-	2f	-a,
.	.	4d	-go, io	.	.
=3	=3	=3	=3	=3	=3
0r	.	2d	ven-	4r	.
.	.	.	.	4f	Sil-
.	.	2c	-go a	4g	-via, io
.	.	.	.	4a	ti
.	.	4B-y	far-	4b-y	se-
.	.	4A	-ti	4cc	-guo, io
.	.	4B-y	com-	2b-y	ven-
.	.	4G	-pa-	.	.
=4	=4	=4	=4	=4	=4
2r	.	2F	-gni-	2a	-go,
2C	Sil-	2c	-a,	2r	.
4D	-via, io	1r	.	1r	.
4E	ti	.	.	.	.
4F	se-	.	.	.	.
4G	-guo, io	.	.	.	.
=5	=5	=5	=5	=5	=5
2A	ven-	2r	.	2r	.
4F	-go,	4r	.	4r	.
4F	io	4A	io	4cc	io
2F	ven-	2A	ven-	2.a	ven-
2FF	-go A	2A	-go A	.	.
.	.	.	.	4a	-go A
=6	=6	=6	=6	=6	=6
4GG	far-	4d	far-	4g	far-
4AA	-ti	4c	-ti	4f	-ti
4BB-y	com-	4d	com-	4f	com-
4C	-pa-	4c	-pa-	4e	-pa-
1FF	-gni-	1c	-gni-	1f	-gni-
=7	=7	=7	=7	=7	=7
2C	-a,	1c	-a,	2e	-a,
4r	.	.	.	4g	Se
4C	Se	.	.	2a	non
2D	non	4r	.	.	.
.	.	4A	Se	2f	la
2BB-y	la	4B-y	non	.	.
.	.	4F	la	[4g	sde-
=8	=8	=8	=8	=8	=8
2C	sde-	2c	sde-	4g]	.
.	.	.	.	4g	-gne-
2AA	-gne-	2c	-gne-	8aL	-ra-
.	.	.	.	8b-y	.
.	.	.	.	8cc	.
.	.	.	.	8aJ	.
1GG	-ra-	4d	-ra-	4bnX	.
.	.	4G	.	2cc	.
.	.	2g	.	.	.
.	.	.	.	4bnX	.
=9	=9	=9	=9	=9	=9
1C	-i;	1e	-i;	1cc	-i;
1r	.	2.c	E	2r	.
.	.	.	.	[2g	E
.	.	8c	mo-	.	.
.	.	8d	-ri-	.	.
=10	=10	=10	=10	=10	=10
0r	.	2.e-X	-rei,	4g]	.
.	.	.	.	8g	mo-
.	.	.	.	8a	-ri-
.	.	.	.	2.b-y	-rei,
.	.	8d	mo-	.	.
.	.	8d	-ri-	.	.
.	.	2.d	-rei,	.	.
.	.	.	.	8a	mo-
.	.	.	.	8a	-ri-
.	.	.	.	[2a	-rei,
.	.	8c	mo-	.	.
.	.	8c	-ri-	.	.
=11	=11	=11	=11	=11	=11
0r	.	2.c	-rei	4a]	.
.	.	.	.	8g	mo-
.	.	.	.	8g	-ri-
.	.	.	.	2.g	-rei
.	.	4B-y	con-	.	.
.	.	1A	-ten-	.	.
.	.	.	.	4f	con-
.	.	.	.	2e	-ten-
=12	=12	=12	=12	=12	=12
4r	.	1D	-to,	1d	-to,
2D	E	.	.	.	.
8D	mo-	.	.	.	.
8E	-ri-	.	.	.	.
2.F	-rei,	1r	.	1r	.
8E-X	mo-	.	.	.	.
8E-X	-ri-	.	.	.	.
=13	=13	=13	=13	=13	=13
2.E-X	-rei	1r	.	0r	.
4D	con-	.	.	.	.
1D	-ten-	2r	.	.	.
.	.	[2d	S'io	.	.
=14	=14	=14	=14	=14	=14
2GG	-to	2d]	.	1r	.
1G	S'io	4B-y	fos-	.	.
.	.	4B-y	-si	.	.
.	.	4B-y	cer-	1g	S'io
.	.	4A	-to al-	.	.
[2E-X	fos-	2G	-me-	.	.
=15	=15	=15	=15	=15	=15
4E-]	.	1G	-no	2.g	fos-
4D	-si	.	.	.	.
1C	cer-	.	.	.	.
.	.	.	.	4f	-si
.	.	1r	.	4g	cer-
.	.	.	.	4a	-to al-
2BB-y	-to al-	.	.	[2b-y	-me-
=16	=16	=16	=16	=16	=16
1F	-me-	1r	.	2b-y]	.
.	.	.	.	2a	.
1BB-y	-no	2r	.	2b-y	-no
.	.	2B-y	Che'l	4r	.
.	.	.	.	4dd	Che'l
=17	=17	=17	=17	=17	=17
0r	.	2f	mio	4cc	mio
.	.	.	.	4a	ve-
.	.	4d	ve-	2b-y	-nir-
.	.	2e-X	-nir-	.	.
.	.	.	.	4g	-ti
.	.	4c	-ti	2a	die-
.	.	2d	die-	.	.
.	.	.	.	4f	-tro
=18	=18	=18	=18	=18	=18
0r	.	4B-y	-tro	4g	Tur-
.	.	4c	Tur-	2g	-bar
.	.	2c	-bar	.	.
.	.	.	.	4e	non
.	.	4A	non	2f	ti
.	.	2B-y	ti	.	.
.	.	.	.	2f	do-
.	.	4d	do-	.	.
=19	=19	=19	=19	=19	=19
4r	.	2c	-ves-	2g	-ves-
4C	Che'l	.	.	.	.
2F	mio	2A	-si	4a	-si,
.	.	.	.	4a	Che'l
4D	ve-	1r	.	4f	mio
2E-X	-nir-	.	.	4g	ve-
.	.	.	.	4g	-nir-
4C	-ti	.	.	4e	-ti
=20	=20	=20	=20	=20	=20
2D	die-	0r	.	2f	die-
4BB-y	-tro	.	.	4d	-tro
4C	Tur-	.	.	4e	Tur-
2D	-bar	.	.	2e	-bar
4AA	non	.	.	4c	non
[4BB-y	ti	.	.	[4d	ti
=21	=21	=21	=21	=21	=21
4BB-y]	.	1r	.	4d]	.
4D	do-	.	.	4f	do-
2C	-ves-	.	.	2e	-ves-
1FF	-si	4r	.	1f	-si
.	.	2c	E	.	.
.	.	4B-y	che	.	.
=22	=22	=22	=22	=22	=22
0r	.	2A	fos-	0r	.
.	.	4G	-se	.	.
.	.	4F	fi-	.	.
.	.	1G	-ni-	.	.
=23	=23	=23	=23	=23	=23
0r	.	1F	-ta	4r	.
.	.	.	.	2a	E
.	.	.	.	4g	che
.	.	4C	L'i-	2f	fos-
.	.	4C	-ra	.	.
.	.	2C	tua	4e	-se
.	.	.	.	4d	fi-
=24	=24	=24	=24	=24	=24
1r	.	4C	con	1e	-ni-
.	.	4C	la	.	.
.	.	2C	vi-	.	.
4r	.	2c	-ta,	2f	-ta
2c	E	.	.	.	.
.	.	2r	.	4a	L'i-
4B-y	che	.	.	4b-y	-ra
=25	=25	=25	=25	=25	=25
2A	fos-	0r	.	2cc	tua
4G	-se	.	.	2.cc	con
4F	fi-	.	.	.	.
1G	-ni-	.	.	.	.
.	.	.	.	4b-y	la
.	.	.	.	2g	vi-
=26	=26	=26	=26	=26	=26
1F	-ta,	4r	.	4a	-ta,
.	.	2A	E	2cc	E
.	.	4G	che	4b-y	che
4C	L'i-	2F	fos-	2a	fos-
4C	-ra	.	.	.	.
2C	tua	4E	-se	4g	-se
.	.	4D	fi-	4f	fi-
=27	=27	=27	=27	=27	=27
4C	con	1E	-ni-	1g	-ni-
4C	la	.	.	.	.
2C	vi-	.	.	.	.
2D	-ta,	[1F	-ta	1f	-ta
4BB-y	L'i-	.	.	.	.
4C	-ra	.	.	.	.
=28	=28	=28	=28	=28	=28
2D	tua	1F]	.	0r	.
4D	con	.	.	.	.
4E-X	la	.	.	.	.
1F	vi-	1r	.	.	.
=29	=29	=29	=29	=29	=29
1F	-ta,	2r	.	0r	.
.	.	4f	L'i-	.	.
.	.	4e-X	-ra	.	.
4BB-y	<L'i-	2d	tua	.	.
4BB-y	-ra	.	.	.	.
2BB-y	tua	4d	con	.	.
.	.	4c	la	.	.
=30	=30	=30	=30	=30	=30
2BB-y	con	2B-y	vi-	0r	.
2AA	la	1F	.	.	.
1BB-y	vi-	.	.	.	.
.	.	2B-y	.	.	.
=31	=31	=31	=31	=31	=31
2F	-ta.>	2A	-ta.	4r	.
.	.	.	.	4f	Sil-
2r	.	2r	.	4g	-via, io
.	.	.	.	4a	ti
1r	.	1r	.	4b-y	se-
.	.	.	.	4cc	-guo, io
.	.	.	.	4.dd	ven-
.	.	.	.	8dd	-go A
=32	=32	=32	=32	=32	=32
0r	.	4r	.	4cc	far-
.	.	4F	Sil-	4cc	-ti
.	.	4G	-via, io	4b-y	com-
.	.	4A	ti	4a	pa-
.	.	4B-y	se-	2g	-gni-
.	.	4c	-guo, io	.	.
.	.	4d	ven-	2f	-a,
.	.	4d	-go, io	.	.
=33	=33	=33	=33	=33	=33
0r	.	2d	ven-	4r	.
.	.	.	.	4f	Sil-
.	.	2c	-go A	4g	-via, io
.	.	.	.	4a	ti
.	.	4B-y	far-	4b-y	se-
.	.	4A	-ti	4cc	-guo, io
.	.	4B-y	com-	2b-y	ven-
.	.	4G	-pa-	.	.
=34	=34	=34	=34	=34	=34
2r	.	2F	-gni-	2a	-go,
2C	Sil-	2c	-a,	2r	.
4D	-via, io	1r	.	1r	.
4E	ti	.	.	.	.
4F	se-	.	.	.	.
4G	-guo, io	.	.	.	.
=35	=35	=35	=35	=35	=35
2A	ven-	2r	.	2r	.
4F	-go,	4r	.	4r	.
4F	io	4A	io	4cc	io
2F	ven-	2A	ven-	2.a	ven-
2FF	-go A	2A	-go A	.	.
.	.	.	.	4a	-go A
=36	=36	=36	=36	=36	=36
4GG	far-	4d	far-	4g	far-
4AA	-ti	4c	-ti	4f	-ti
4BB-y	com-	4d	com-	4f	com-
4C	-pa-	4c	-pa-	4e	-pa-
2FF	-gni-	2c	-gni-	2f	-gni-
2FF	-a,	4c	-a,	4f	-a,
.	.	4F	A	4cc	A
=37	=37	=37	=37	=37	=37
1r	.	4G	far-	4b-y	far-
.	.	4A	-ti	4a	-ti
.	.	4B-y	com-	4g	com-
.	.	4c	-pa-	4g	-pa-
2r	.	2F	-gni-	2a	-gni-
4r	.	2F	-a,	2a	-a,
4A	io	.	.	.	.
=38	=38	=38	=38	=38	=38
2G	ven-	0r	.	2r	.
2F	-go A	.	.	1cc	io
2E	far-	.	.	.	.
2D	-ti	.	.	[2b-y	ven-
=39	=39	=39	=39	=39	=39
1.C	com-	4r	.	2b-y]	.
.	.	4G	io	.	.
.	.	4A	ven-	2a	-go A
.	.	4B-y	-go A	.	.
.	.	2c	far-	2.g	far-
2BB-y	-pa-	2d	-ti	.	.
.	.	.	.	4f	-ti
=40	=40	=40	=40	=40	=40
0C	-gni-	2c	com-	2e	com-
.	.	2c	-pa-	2f	-pa-
.	.	1c	-gni-	1g	-gni-
=41	=41	=41	=41	=41	=41
0FFl	-a.	0cl	-a.	0al	-a.
==	==	==	==	==	==
*-	*-	*-	*-	*-	*-
!!!system-decoration: [*]
!!!RDF**kern: i = editorial accidental
!!!RDF**kern: l = terminal long
!!!ENC: Emiliano Ricciardi
!!!END: 2018/06/20
!!!EED: Coluzzi, Seth
!!!EEV: 2018/07/13
!!!YEC: Copyright 2018 Emiliano Ricciardi, All Rights Reserved
!!!ONB: Translated from MusicXML on 2018/07/13 and edited by Craig Stuart Sapp
!!@@BEGIN:	VERSEDATA
!!@CATALOGNUM:	Tam4021717
!!@LAST_MODIFIED: 2020/07/12
!!@ACT:       IV
!!@SCENE:     2
!!@VERSE:     1717
!!@TITLE:     Silvia, io ti seguo, io vengo
!!@MANUSRC:	A-Am, A-Au, A-Br, A-CM, A-F, A-Ub
!!@PRINTSRC:	A-1580D, A-1580M, A-1581B, A-1581B<sub>bis</sub>, A-1581M, A-1581M<sub>bis</sub>, A-1581O, A-1581V, A-1582B, A-1583M, A-1583V, A-1584A, A-1585C, A-1585V, A-1585V<sub>bis</sub>, A-1588B, A-1589M, A-1589V, A-1590Mb, A-1590Mv, A-1591M, A-1591W, A-1592B, A-1596B, A-1596M, A-1599Bf, A-1599Bp, A-1600R, A-1601Bf, A-1601Bp, A-1602B, A-1603Bf, A-1603Bv, A-1603Z, A-1605R, A-1606Z, A-1608D, A-1608DP, A-1609Bf, A-1609Bv, A-1609Z, A-1611D, A-1614GT, A-1617D, A-1618B, A-1619D, A-1619I, A-1620V, A-1622D, A-1623A, A-1624M, A-1624S, A-1624T, A-1625U, A-1628U, A-1632D, A-1634R
!!@@BEGIN:	VERSES
!!@ABOUTIT:	
!!@ABOUTEN:	
!!@EDITOR:	Solerti, Angelo
!!@EDITION_TITLE: Opere minori in versi di Torquato Tasso. Edizione critica sugli autografi e sulle antiche stampe.
!!@EDITION_LOC:	Bologna
!!@EDITION_PUB:	Zanichelli
!!@EDITION_DATE:  1895
!!@EDITION_VOL:	3
!!@EDITION_PAGE:
!!@TRANSLATOR:	Emiliano Ricciardi and Amyrose McCue Gill
!!@VERSE:	
!!	"Silvia, io ti seguo, io vengo
!!	A farti compagnia,
!!	Se non la sdegnarai:
!!	E morirei contento,
!!	S'io fossi certo almeno
!!	Che 'l mio venirti dietro
!!	Turbar non ti dovesse,
!!	E che fosse finita
!!	l'ira tua con la vita.
!!	Silvia, io ti seguo, io vengo." E così detto
!!	Precipitossi d'alto
!!	Co 'l capo in giuso: et io restai di ghiaccio.
!!@TVERSE:
!!	"Silvia, I follow you, I come
!!	To keep you company,
!!	If you will not scorn it:
!!	And I would die content,
!!	If I were certain at least
!!	That my coming along behind you
!!	Should not bother you,
!!	And that ended has
!!	Your ire with my life.
!!	Silvia, I follow you, I come." And [having] said this
!!	He threw [himself] with his
!!	head down: and I remained of ice.
!!@@END:		VERSES
!!@NEW_CRIT_ED:   Torquato Tasso, <i>Aminta. "Princeps."</i>, ed. Matteo Navone, vol. 9 of Commissione Nazionale per l'Edizione delle opere del Tasso. Studi e Testi (Alessandria: Edizioni dell'Orso, 2014).
!!@ATTRIBUTION_ABOUT:	
!!@DATING:	1573
!!@DEDICATEE:	
!!@COMMENTARY:
!!@@END:		VERSEDATA
!!@@BEGIN: SETTING
!!@CATALOGNUM:	Tam4021717a
!!@ACT:		IV
!!@SCENE:		2
!!@VERSE:		1717
!!@TITLE:	Silvia, io ti seguo, io vengo
!!@COMPOSER:	Marotta, Erasmo
!!@PRINCEPSTITLE:	Aminta musicale. Il primo libro de madrigali a cinque voci
!!@PRINCEPSLOC:	Venice
!!@NORMLOC:	Venice
!!@NORMPUB:	Angelo Gardano
!!@NORMPUBSHORT:	Gardano
!!@PRINCEPSPUB:	Angelo Gardano
!!@PRINCEPSYEAR:	1600
!!@PRINCEPSRISM:	M 714
!!@OVOICES:	5
!!@EXTANTVOICES:	3
!!@OMENSURATION:	C
!!@OCLEFS:	C1,C4,F4
!!@OTIME:		
!!@OKEYSIG:	b-
!!@FINAL:		F
!!@TIMPEDITOR:	Coluzzi, Seth
!!@PARTS:		1 of 1
!!@REPRINTS:	
!!@@END: SETTING
